X:196
T:Cliffs of Moher, The
R:jig
H:An unusual version. See also #79, #224, #401. Can also be played in Ador.
Z:id:hn-jig-196
M:6/8
K:Edor
Bee dee|Bee dBA|F2D A,DD|FED FGA|Bee dee|Bee dBA|F2D A,DD|FED E3:|
|:~B3 BAF|BAF AFE|F2D A,DD|FED FGA|~B3 BAF|BdB AFE|F2D A,DD|FED E3:|

